X:1
T:Title
%%score { ( 1 3 ) | ( 2 4 ) }
L:1/8
Q:1/4=90
M:6/8
K:G
V:1 treble nm="Grand Piano"
V:3 treble 
V:2 bass 
V:4 bass 
V:1
 [DB][^C_B][D=B] [Fd]2 [Ec] | B3 G3 | A^GA cBA | [G,G]3- [G,=FG]3 | %4
w: Haldor~Lillenas * * * *||||
 [G,EG][G,^DF][G,EG] [EA]2 [DG] | B3 D3 | [^CE][CF][CG] [CB][CA][CG] | [CA]6 | %8
w: ||||
 [DB][^C_B][D=B] [Ec]2 [DB] | [^CB]3 [CE]3 | A^GA B2 A | G6 |[M:3/8] [EG][^DF][EG] | [EA]2 [^DG] | %14
w: ||||||
[M:3/4] B3 D3 | [^CE][CF] [CG] [CB]2 [CA] | [CA]6 | [DB][^C_B] [D=B] [Ec]2 [DB] | [^CB]3 [CE]3 | %19
w: |||||
 A^G A B2 A | G6 |[M:3/8] [EG][^DF][EG] | [EA][EG][EA] |[M:7/8] B_B=B [^Ge]3 [DGB] | %24
w: |||||
[M:3/4] B2- [=GB] .[CFA]3 | G6 |] %26
w: ||
V:2
 [G,,G,][G,,G,][G,,G,] [D,A,]2 [D,F,] | [D,G,D]3 [D,G,B,]3 | %2
 [D,F,C][D,=F,B,][D,^F,C] [D,F,E][D,G,D][D,F,C] | G,,3 B,,3 | C,C,C, [C,C]2 [C,C] | %5
 [D,G,D]3 [G,B,]3 | [A,,G,][A,,F,][A,,E,] [A,,E,][A,,E,][A,,A,] | [D,F,]6 | %8
 [G,,G,][G,,G,][G,,G,] [E,^G,]2 [E,G,] | [A,,A,]3 [A,,G,]3 | %10
 [D,F,C][D,=F,B,][D,^F,C] [D,G,D]2 [^D,F,C] | [E,G,B,]3 [D,B,]3 |[M:3/8] [C,C][C,C][C,C] | %13
 [C,C]2 [C,C] |[M:3/4] [G,B,D]3 [G,B,]3 | [A,,G,][A,,F,] [A,,E,] [A,,E,]2 [A,,G,] | [D,F,]6 | %17
 [G,,G,][G,,G,] [G,,G,] [E,^G,]2 [E,G,] | [A,,A,]3 [A,,G,]3 | %19
 [D,F,C][D,=F,B,] [D,^F,C] [D,G,D]2 [^D,F,C] | [E,G,B,]3 [D,B,]3 |[M:3/8] [C,C][C,C][C,C] | %22
 [C,C][C,C][C,C] |[M:7/8][K:treble] [G,D][G,^CG][G,DG][K:bass] [E,D]3 E, |[M:3/4] z2 .^C2 z D | %25
 z2 _B, .=B,3 |] %26
V:3
 x6 | x6 | x6 | B,3 z3 | x6 | x6 | x6 | x6 | x6 | x6 | x6 | z3 =F3 |[M:3/8] x3 | x3 |[M:3/4] x6 | %15
 x6 | x6 | x6 | x6 | x6 | z2 z =F3 |[M:3/8] x3 | x3 |[M:7/8] x7 |[M:3/4] [D^G]2 z2 z2 | %25
 [B,D]2 ^D .=D3 |] %26
V:4
 x6 | x6 | x6 | x6 | x6 | x6 | x6 | x6 | x6 | x6 | x6 | x6 |[M:3/8] x3 | x3 |[M:3/4] x6 | x6 | x6 | %17
 x6 | x6 | x6 | x6 |[M:3/8] x3 | x3 |[M:7/8][K:treble] x3[K:bass] x4 |[M:3/4] E,3 D,3 | G,,6 |] %26

